X: 34641
T: Road To Banff, The
R: jig
M: 6/8
K: Dmajor
A|Add dcd|BAG A3|AdA eAf|g2g ecB|
Add dcd|BAG A3|AdA eAf|gec d2:|
|:g|a2a fdA|g2g ecB|AdA eAf|g2g efg|
a2a fdA|g2g ecB|AdA eAf|gecd2:|

